!!!COM: Mozart, Wolfgang Amadeus
!!!CDT: 1756/01/27/-1791/12/05/
!!!CNT: German
!!!OTL: Piano Sonata No. 8 in A minor
!!!SCT1: K<sup>1</sup> 310
!!!SCT2: K<sup>6</sup> 300d
!!!OMV: 3
!!!OMD: Presto
!!!ODT: 1778///
**kern	**kern	**dynam
*staff2	*staff1	*staff1/2
*>[A,B,B,C,C1,C,C2,D]	*>[A,B,B,C,C1,C,C2,D]	*>[A,B,B,C,C1,C,C2,D]
*>norep[A,B,C,C2,D]	*>norep[A,B,C,C2,D]	*>norep[A,B,C,C2,D]
*>A	*>A	*>A
*clefF4	*clefG2	*clefG2
*k[]	*k[]	*k[]
*a:	*a:	*a:
*M2/4	*M2/4	*M2/4
*MM160	*MM160	*MM160
=1-	=1-	=1-
*^	*^	*
8r	8r	(4.cc	4.a	p
(8AL	4.A	.	.	.
8e	.	.	.	.
8dJ)	.	8b)	8g#	.
=2	=2	=2	=2	=2
8r	8r	(4.a	2e	.
(8AL	4.A	.	.	.
8c	.	.	.	.
8BJ)	.	8g#)	.	.
*v	*v	*	*	*
=3	=3	=3	=3
8r	(4.a	2e	.
(8AL	.	.	.
8c	.	.	.
8G#J)	8b)	.	.
*	*v	*v	*
=4	=4	=4
.	(8ddqq	.
*	*^	*
8r	()4cc	4a	.
(8AL	.	.	.
8e	4b)	4g#	.
8EJ)	.	.	.
=5	=5	=5	=5
8r	(4.dd	2a	.
(8FL	.	.	.
8f	.	.	.
8eJ)	8cc)	.	.
=6	=6	=6	=6
8r	(4.ff	2a	.
(8DL	.	.	.
8d	.	.	.
8cJ)	8ee)	.	.
=7	=7	=7	=7
8r	(4.dd	4.g#	.
(8BBL	.	.	.
8B	.	.	.
8AJ)	8cc)	8a	.
=8	=8	=8	=8
4E 4e	(8ccL	4g#	.
.	8bJ)	.	.
4E	(8g#L	4r	.
.	8eJ)	.	.
=9	=9	=9	=9
*^	*	*	*
8r	8r	(4.cc	4.a	.
(8AL	4.A	.	.	.
8e	.	.	.	.
8dJ)	.	8b)	8g#	.
=10	=10	=10	=10	=10
8r	8r	(4.a	2e	.
(8AL	4.A	.	.	.
8c	.	.	.	.
8BJ)	.	8g#)	.	.
*v	*v	*	*	*
=11	=11	=11	=11
8r	(4.a	2e	.
(8AL	.	.	.
8c	.	.	.
8G#J)	8b)	.	.
*	*v	*v	*
=12	=12	=12
.	8ddqq	.
*	*^	*
8r	(4cc	4a	.
(8AL	.	.	.
8e	4b)	4g#	.
8EJ)	.	.	.
=13	=13	=13	=13
8r	(4.ff	2a	.
(8DL	.	.	.
8d	.	.	.
8cJ)	8ee)	.	.
=14	=14	=14	=14
8r	(4.dd	2a	.
(8FL	.	.	.
8f	.	.	.
8eJ)	8cc)	.	.
*	*v	*v	*
=15	=15	=15
4d	(8ccL	.
.	8b)	.
4e	8a	.
.	8g#J	.
=16	=16	=16
4f	8a	.
.	8cc#'L	.
4r	8dd'	.
.	8ee'J	.
=17	=17	=17
*	*^	*
8r	(4.ff	2a	f
(8DL	.	.	.
8d	.	.	.
8cnJ)	8ee)	.	.
*	*v	*v	*
=18	=18	=18
8r	4.dd (4.gg#	.
(8BBL	.	.
8B	.	.
8AJ)	8ccn 8aa)	.
=19	=19	=19
4d	8cc (8eeL	.
.	8b 8dd)	.
4e	8a 8cc	.
.	8g# 8bJ	.
=20	=20	=20
4A	8a	<
.	8cc'L	.
4r	8dd'	.
.	8ee'J	[
=21	=21	=21
*^	*	*
8r	8r	(4.ff	p
4.A	(>8AL	.	.
.	8c	.	.
.	8fJ)	8aa)	.
=22	=22	=22	=22
8r	8r	(8ffL	.
4.G	(>8G/L<	8ee	.
.	8c	8dd#	.
.	8eJ)	8eeJ)	.
=23	=23	=23	=23
8r	8r	(4.aa	.
4.F	(>8FL	.	.
.	8A	.	.
.	8cJ)	8ccc)	.
=24	=24	=24	=24
8r	8r	(8aaL	.
4.E	(>8EL	8gg	.
.	8G	8ff#	.
.	8cJ)	8ggJ)	.
*clefG2	*	*	*
=25	=25	=25	=25
.	.	(>32ccqq	.
8r	8r	(4.ccc)	.
(8eL	4.e	.	.
8g	.	.	.
8ccJ)	.	8bb)	.
*v	*v	*	*
=26	=26	=26
(8fL	(8bbL	<
8cc	8aa)	.
8e	(8aa	.
8ccJ)	8ggJ)	.
=27	=27	=27
(8dL	(8ggLM	.
8b	8ff)	.
8c	(8ffM	.
8ccJ)	8eeJ)	.
=28	=28	=28
(4g	4cc (4ee	f
4G)	4b 4dd)	.
=29	=29	=29
*^	*	*
8r	8r	4.cc (4.ee-	pp
(8cL	4.c	.	fp
8g	.	.	.
8fJ)	.	8b 8dd)	.
=30	=30	=30	=30
8r	8r	(4.cc	.
(8cL	4.c	.	.
8e-	.	.	.
8dJ)	.	8b 8dd)	.
*v	*v	*	*
*clefF4	*	*
=31	=31	=31
*	*^	*
8r	(4.ee-	2cc	.
(8cL	.	.	.
8e-	.	.	.
8A-J)	8ff)	.	.
=32	=32	=32	=32
8r	(4ee-	4cc	.
(8GL	.	.	.
8F#	4dd)	4b	.
8GJ)	.	.	.
*	*v	*v	*
=33	=33	=33
*^	*	*
8r	8r	(4.dd 4.ff	fp
(8GL	4.G	.	fp
8B	.	.	.
8cJ)	.	8cc 8een)	.
=34	=34	=34	=34
8r	8r	(4.b 4.dd	.
(8GL	4.G	.	.
8f	.	.	.
8enJ)	.	8cc 8ee)	.
*v	*v	*	*
=35	=35	=35
8r	(4.dd 4.ff	.
(8dL	.	.
8B	.	.
8GJ)	8ee 8gg)	.
=36	=36	=36
8r	4dd (4ff	.
(8BL	.	.
8c	4cc 4ee)	.
8CJ)	.	.
=37	=37	=37
8EL	(4.gg 4.ccc	f
8e	.	.
8g	.	.
8dJ	8ff 8bb)	.
=38	=38	=38
8CL	(4.ee 4.aa	.
8c	.	.
8e	.	.
8BJ	8dd 8gg)	.
=39	=39	=39
8AAL	4.cc (4.ff	.
8A	.	.
8c	.	.
8GJ	8b 8ee)	.
=40	=40	=40
8FFL	4.a (4.dd	.
8F	.	.
8A	.	.
8EJ	8g 8cc#)	.
=41	=41	=41
4F	(8ddL	.
.	8a	.
4C#	8ee	.
.	8aJ	.
=42	=42	=42
4D	8ffL	.
.	8aa	.
8r	8ff	.
8F	8ddJ)	.
=43	=43	=43
*	*^	*
4G	4ccn	4e 4g	.
4GG	[4dd	[4g [4b	.
=44	=44	=44	=44
4.C	(8ddL]	4g_ 4b]	.
.	8dd#	.	.
.	8eeJ)	8g] 8cc	.
8r	8ryy	8gg'	.
*	*v	*v	*
=45	=45	=45
8EL	4.gg (4.ccc	.
8e	.	.
8g	.	.
8dJ	8ff 8bb)	.
=46	=46	=46
8CL	4.ee (4.aa	.
8c	.	.
8e	.	.
8BJ	8dd 8gg)	.
=47	=47	=47
8AAL	4.cc (4.ff	.
8A	.	.
8c	.	.
8GJ	8b 8ee)	.
=48	=48	=48
8FFL	4.a (4.dd	.
8F	.	.
8A	.	.
8EJ	8g\ 8cc#\)	.
=49	=49	=49
4F	(8ddL	.
.	8a	.
4C#	8ee	.
.	8aJ	.
=50	=50	=50
(8DL	8ffL	.
8E	8gg	.
8F	8aa	.
8DJ	8ffJ)	.
=51	=51	=51
8GL	4g 4ccn 4ee	.
8F#	.	.
8G	4g 4b 4dd	.
8GGJ)	.	.
=52	=52	=52
*	*^	*
8r	2cc#	8r	.
(8B-L	.	(8gL	.
8A	.	8a	.
8GJ	.	8b-J	.
*	*v	*v	*
=53	=53	=53
4F)	8ddL	.
.	8a	.
4C#	8ee	.
.	8aJ)	.
=54	=54	=54
8DL	(8ffL	.
8E	8gg	.
8F	8aa	.
8DJ	8ffJ)	.
=55	=55	=55
8GL	4g 4ccn 4ee	.
8F#	.	.
8G	4g 4b 4dd	.
8GGJ	.	.
=56	=56	=56
*	*^	*
8r	2cc#	8r	.
8B-L	.	(>(8gL	.
(8A	.	8a	.
8GJ	.	8b-J)	.
=57	=57	=57	=57
8FL	8ddL	2a	.
8E	8ee	.	.
8D	8ff	.	.
8FJ)	8ddJ)	.	.
=58	=58	=58	=58
8r	2dd#	8r	.
(8cnL	.	(>(8aL	.
8Bn	.	8bn	.
8AJ	.	8ccJ)	.
=59	=59	=59	=59
8GL	8eeL	2b	.
8F#	8ff#	.	.
8E	8gg	.	.
8GJ)	8eeJ)	.	.
=60	=60	=60	=60
(8AL	(4.ccc	2ee	f
8AA	.	.	.
8A	.	.	.
8BJ	8bb)	.	>
=61	=61	=61	=61
!	!	!LO:TX:i:t=dim.	!
8cL	(4.aa	2ee	.
8C	.	.	.
8c	.	.	.
8BJ	8gg)	.	.
*	*v	*v	*
=62	=62	=62
8AL	4.cc (4.ff#	.
8AA	.	.
8A	.	.
8A#J	8cc# 8ee)	.
=63	=63	=63
*	*^	*
4B)	(8eeL	4b	.
.	8dd#	.	.
4r	8cc#	4ryy	.
.	8bJ)	.	.
=64	=64	=64	=64
(4.GG 4.G	8r	8r	.
.	(8bL	4.b	p
.	8ee	.	.
8FF#) 8F#	8dd#J)	.	.
=65	=65	=65	=65
(4.EE 4.E	8r	8r	.
.	(8bL	4.b	.
.	8gg	.	.
8DD#) 8D#	8ff#J)	.	.
=66	=66	=66	=66
(4.EE 4.E	8r	8r	.
.	(8bL	4.b	.
.	8gg	.	.
8FF#) 8F#	8aaJ)	.	.
=67	=67	=67	=67
(4EE 4E	8r	8r	.
.	(8bL	4.b	.
4DD#) 4D#	8gg	.	.
.	8ff#J)	.	.
=68	=68	=68	=68
(4.FF# 4.F#	8r	8r	.
.	(8bL	4.b	.
.	8aa	.	.
8EE) 8E	8ggJ)	.	.
=69	=69	=69	=69
(4.DD# 4.D#	8r	8r	.
.	(8bL	4.b	.
.	8ff#	.	.
8EE) 8E	8ggJ)	.	.
=70	=70	=70	=70
(4.FF# 4.F#	8r	8r	.
.	(8bL	4.b	.
.	8aa	.	.
8GG) 8G	8bbJ)	.	.
=71	=71	=71	=71
(4FF# 4F#	8r	8r	.
.	(8bL	4.b	.
4EE) 4E	8aa	.	.
.	8ggJ)	.	.
*	*v	*v	*
=72	=72	=72
(4.G 4.B	8bL	f
.	8bb	.
.	8eee	.
8F# 8A)	8dddnJ	.
=73	=73	=73
(4.E 4.G	8gL	.
.	8gg	.
.	8ccc	.
8Dn 8F#)	8bbJ	.
=74	=74	=74
(4.C/ 4.E/	8eL	.
.	8ee	.
.	8aa	.
8BB 8D)	8ggJ	.
=75	=75	=75
(4.AA 4.C	8cL	.
.	8cc	.
.	8ffn	.
8GG 8BB)	8eeJ	.
=76	=76	=76
4FF# 4AA	8dd#L	.
.	8ff#	.
(4DD# [4BB	8b	.
.	8aaJ	.
=77	=77	=77
4EE) 4BB]	8ggL	.
.	8ee	.
4AA	8ccc	.
.	8aaJ	.
=78	=78	=78
4BB	8ggL	.
.	8bb	.
4BBB	8dd#	.
.	8ff#J	.
=79	=79	=79
4EE	8eeL<	.
.	8b	.
4r	8g	.
.	8eJ	.
=80	=80	=80
4.G (4.B	8bL	.
.	8bb	.
.	8eee	.
8F# 8A)	8ddd#J	.
=81	=81	=81
4.E (4.G	8gL	.
.	8gg	.
.	8ccc	.
8Dn 8F#)	8bbJ	.
=82	=82	=82
(4.C/ 4.E/	8eL	.
.	8ee	.
.	8aa	.
8BB) 8D	8ggJ	.
=83	=83	=83
(4.AA 4.C	8cL	.
.	8cc	.
.	8ffn	.
8GG) 8BB	8eeJ	.
=84	=84	=84
4FF# 4AA	8dd#L	.
.	8ff#	.
(4DD# [4BB	8b	.
.	8aaJ	.
=85	=85	=85
4EE) 4BB]	8ggL	.
.	8ee	.
4AA	8ccc	.
.	8aaJ	.
=86	=86	=86
4BB	8ggL	.
.	8bb	.
4BBB	8dd#	.
.	8ff#J	.
=87	=87	=87
*	*^	*
8r	[2ee	(4.ee	.
(8EL	.	.	.
8F#	.	.	.
8G#J	.	8ddn	.
=88	=88	=88	=88
8AL	2ee]	8ccL	.
8B	.	8b	.
8c	.	8a	.
8AJ)	.	8ccJ)	.
=89	=89	=89	=89
8r	[2ffn	(4.dd	.
(8DL	.	.	.
8E	.	.	.
8FnJ	.	8cc	.
=90	=90	=90	=90
8GnL	2ff]	8bL	.
8A	.	8a	.
8B	.	8g	.
8GJ)	.	8bJ)	.
=91	=91	=91	=91
8r	[2ee	(4.cc	.
(8CL	.	.	.
8D	.	.	.
8EJ	.	8b	.
=92	=92	=92	=92
8FL	2ee]	8aL	.
8G	.	8g	.
8A	.	8f	.
8FJ)	.	8aJ)	.
=93	=93	=93	=93
8r	[2dd	(4.b	.
(8BBL	.	.	.
8C	.	.	.
8DJ	.	8a	.
=94	=94	=94	=94
8EL	2dd]	8g#L	.
8F#	.	8a	.
8G#	.	8b	.
8EJ)	.	8g#J)	.
=95	=95	=95	=95
4A	8ccL	4r	.
!	!LO:TX:i:t=legato	!	!
.	8aJ	.	.
8r	[4ee	8re	.
8Gn	.	8b	.
=96	=96	=96	=96
4.Fn	8eeL]	4.a	.
.	8ffJ	.	.
.	[4dd	.	.
8D	.	8b	.
=97	=97	=97	=97
4.E	8ddL]	4.g#	.
.	8eeJ	.	.
.	[4cc	.	.
8C	.	8a	.
=98	=98	=98	=98
4.D	(8ccL]	2f#	.
.	8dd	.	.
.	8b	.	.
(8D#	8aJ)	.	.
=99	=99	=99	=99
2E)	(8g#L	8e	.
.	8b	8r	.
.	8ee	4re	.
.	8g#J)	.	.
*	*v	*v	*
=100	=100	=100
2F ((2A	(8aL	.
.	8ee	.
.	8dd#	.
.	8aJ	.
=101	=101	=101
2E 2B))	8g#L<	.
.	8b	.
.	8ee	.
.	8g#J)	.
=102	=102	=102
2F ((2A	(8aL	.
.	8ee	.
.	8dd#	.
.	8aJ	.
=103	=103	=103
2E 2B))	8g#L<	.
.	8b	.
.	8ee	.
.	8g#J)	.
=104	=104	=104
2F ((2A	(8aL	.
.	8ee	.
.	8dd#	.
.	8aJ	.
=105	=105	=105
4E 4B))	8g#L	.
.	8b	.
4r	8ee	.
.	8dd#J	.
=106	=106	=106
2r	8ddnL	.
.	8cc#	.
.	8dd	.
.	8bJ)	.
=107	=107	=107
*^	*^	*
8r	8r	(4.ccn	4.a	p
(8AL	4.A	.	.	.
8e	.	.	.	.
8dJ)	.	8b)	8g#	.
=108	=108	=108	=108	=108
8r	8r	(4.a	2e	.
(8AL	4.A	.	.	.
8c	.	.	.	.
8BJ)	.	8g#)	.	.
*v	*v	*	*	*
=109	=109	=109	=109
8r	(4.a	2e	.
(8AL	.	.	.
8c	.	.	.
8G#J)	8b)	.	.
*	*v	*v	*
=110	=110	=110
.	(8ddqq	.
*	*^	*
8r	()4cc	4a	.
(8AL	.	.	.
8e	4b)	4g#	.
8EJ)	.	.	.
=111	=111	=111	=111
8r	(4.dd	2a	.
(8FL	.	.	.
8f	.	.	.
8eJ)	8cc)	.	.
=112	=112	=112	=112
8r	(4.ff	2a	.
(8DL	.	.	.
8d	.	.	.
8cJ)	8ee)	.	.
=113	=113	=113	=113
8r	(4.dd	4.g#	.
(8BBL	.	.	.
8B	.	.	.
8AJ)	8cc)	8a	.
=114	=114	=114	=114
4E 4e	(8ccL	4g#	.
.	8bJ)	.	.
4E	(8g#L	4r	.
.	8eJ)	.	.
=115	=115	=115	=115
*^	*	*	*
8r	8r	(4.cc	4.a	.
(8AL	4.A	.	.	.
8e	.	.	.	.
8dJ)	.	8b)	8g#	.
=116	=116	=116	=116	=116
8r	8r	(4.a	2e	.
8AL	4.A	.	.	.
8c	.	.	.	.
8BJ	.	8g#)	.	.
*v	*v	*	*	*
=117	=117	=117	=117
8r	(4.a	2e	.
(8AL	.	.	.
8c	.	.	.
8G#J)	8b)	.	.
*	*v	*v	*
=118	=118	=118
.	(8ddqq	.
*	*^	*
8r	(4cc)	4a	.
(8AL	.	.	.
8e	4b)	4g#	.
8EJ)	.	.	.
=119	=119	=119	=119
8r	(4.ff	2a	.
(8DL	.	.	.
8d	.	.	.
8cJ)	8ee)	.	.
=120	=120	=120	=120
8r	(4.dd	2a	.
(8FL	.	.	.
8f	.	.	.
8eJ)	8cc)	.	.
*	*v	*v	*
=121	=121	=121
4d	(8ccL	.
.	8b)	.
4e	8a	.
.	8g#J	.
=122	=122	=122
4f	8a	.
.	8cc#'L	<
4r	8dd'	.
.	8ee'J	[
=123	=123	=123
*	*^	*
8r	(4.ff	2a	f
(8DL	.	.	.
8d	.	.	.
8cnJ)	8ee)	.	.
=124	=124	=124	=124
8r	(4.gg#	4.dd	.
(8BBL	.	.	.
8B	.	.	.
8AJ)	8aa)	8cc	.
=125	=125	=125	=125
8r	(4.bb	4.ee	.
(8GG#L	.	.	.
8G#	.	.	.
8F#J)	8ccc)	8aa	.
=126	=126	=126	=126
8EL	2ddd	(4gg#	.
8EE	.	.	.
8FF#	.	8aaL	.
8GG#J	.	8bbJ)	.
*	*v	*v	*
=127	=127	=127
8AAL	4.aa (4.ccc	.
8A	.	.
8c	.	.
8eJ	8ggn 8bb)	.
=128	=128	=128
8FFnL	4.ffn (4.aa	.
8F	.	.
8A	.	.
8cJ	8ee 8gg)	.
=129	=129	=129
8DDL	4.dd (4.ff	.
8D	.	.
8F	.	.
8AJ	8cc 8ee)	.
=130	=130	=130
8BBBL	4.b (4.dd	.
8BB	.	.
8D	.	.
8FJ	8cc)	.
=131	=131	=131
8DDL	4f 4g# 4b	.
8D	.	.
8F	8dd'L	.
8DJ	8ff'J	.
=132	=132	=132
*	*^	*
4C	(8ffL	4a	.
.	8ee)	.	.
4F	8dd'	4r	.
.	8cc'J	.	.
*	*v	*v	*
=133	=133	=133
4D	(8ccL	.
.	8b)	.
4E	8a'	.
.	8g#'J	.
=134	=134	=134
4AA	(8aL	.
.	8cc	.
4r	8eeJ)	.
.	8gg#	.
=135	=135	=135
8AAL	4.aa (4.ccc	.
8A	.	.
8c	.	.
8eJ	8ggn 8bb)	.
=136	=136	=136
8FFL	4.ff (4.aa	.
8F	.	.
8A	.	.
8cJ	8ee 8gg)	.
=137	=137	=137
8DDL	4.dd (4.ff	.
8D	.	.
8F	.	.
8AJ	8cc 8ee)	.
=138	=138	=138
8BBBL	4.b (4.dd	.
8BB	.	.
8D	.	.
8FJ	8a 8cc)	.
=139	=139	=139
8DDL	4f 4g# 4b	.
8D	.	.
8F	8dd'L	.
8DJ	8ff'J	.
=140	=140	=140
*	*^	*
4C	(8ffL	4a	.
.	8ee)	.	.
4FF 4F	8dd'	4r	.
.	8cc'J	.	.
*	*v	*v	*
=141	=141	=141
4DD 4D	(8ccL	.
.	8b)	.
4EE 4E	8a'	.
.	8g#'J	.
=142	=142	=142
4AAA 4AA	8a'L	.
.	8e'	.
4r	8a'	.
.	8b'J	.
=143!|:	=143!|:	=143|!:
*>B	*>B	*>B
*k[f#c#g#]	*k[f#c#g#]	*k[f#c#g#]
*^	*	*
(8AL	2A	4.a (4.cc#	p
8c#	.	.	.
8e	.	.	.
8c#J)	.	8cc# 8ee)	.
=144	=144	=144	=144
(8AL	2A	8cc# (8eeL	.
8d	.	8b 8ddJ)	.
8f#	.	8b 8ddL	.
8dJ)	.	8a 8cc#J	.
=145	=145	=145	=145
(8AL	2A	(8a 8cc#L	.
8B	.	8g#) 8bJ	.
8d	.	8g# 8bL>	.
8BJ)	.	8b 8ddJ	.
=146	=146	=146	=146
(8AL	2A	8b (8ddL	.
8c#	.	8a 8cc#J)	.
8e	.	4a 4cc#	.
8c#J)	.	.	.
=147	=147	=147	=147
(8AL	2A	4.cc# (4.aa	fp
8c#	.	.	.
8e	.	.	.
8c#J)	.	8ee 8gg#)	.
=148	=148	=148	=148
(8AL	2A	8ee (8gg#L	.
8d	.	8dd 8ff#J)	.
8f#	.	8dd 8ff#L	.
8eJ)	.	8cc# 8eeJ	.
=149	=149	=149	=149
(8AL	2A	8cc# (8eeL	.
8B	.	8b 8ddJ)	.
8d	.	8b 8ddL	.
8c#J)	.	8a 8cc#J	.
=150	=150	=150	=150
(8dL	2A	(8a 8cc#L	.
8e	.	8g#) 8bJ	.
8c#	.	4a	.
8AJ)	.	.	.
=151	=151	=151	=151
(8AL	2A	4.a (4.cc#	.
8c#	.	.	.
8e	.	.	.
8c#J)	.	8cc# 8ee)	.
=152	=152	=152	=152
(8AL	2A	8cc# (8eeL	.
8d	.	8b 8ddJ)	.
8f#	.	8b 8ddL	.
8dJ)	.	8a 8cc#J	.
=153	=153	=153	=153
(8AL	2A	(8a 8cc#L	.
8B	.	8g#) 8bJ	.
8d	.	8g# 8bL>	.
8BJ)	.	8b 8ddJ	.
=154	=154	=154	=154
(8AL	2A	8b (8ddL	.
8c#	.	8a 8cc#J)	.
8e	.	4a 4cc#	.
8c#J)	.	.	.
=155	=155	=155	=155
*	*	*^	*
(8BL	2B	(8cc#	4.a	.
8d#	.	4b)	.	.
8f#	.	.	.	.
8d#J)	.	8b	8a	.
*v	*v	*	*	*
=156	=156	=156	=156
4e	(8bL	4g#	<
.	8eeJ)	.	.
4A	(8cc#L	4a'	.
.	8ff#J)	.	.
=157	=157	=157	=157
*^	*	*	*
4g#	2B	(4ee	2b	f
4f#	.	4dd#t)	.	.
*v	*v	*	*	*
*	*v	*v	*
.	16cc#qLL	.
.	16dd#qJJ	.
=158	=158	=158
4e	4ee	.
4E	4r	.
=159:|!|:	=159:|!|:	=159:|!|:
*>C	*>C	*>C
2r	(8eeL	p
.	8dd#	.
.	8ee	.
.	8ff#J	.
=160	=160	=160
2r	8eeL	.
.	8ddn	.
.	8cc#	.
.	8bJ)	.
*clefG2	*	*
=161	=161	=161
4e 4gn	(8a#L<	.
.	8b	.
4e 4g	8cc#	.
.	8a#J	.
=162	=162	=162
4d 4f#	8bL	.
.	8a#	.
4r	8b	.
.	8cc#J)	.
=163	=163	=163
2r	(8ddLM	.
.	8cc#	.
.	8dd	.
.	8eeJ	.
=164	=164	=164
2r	8ddL	.
.	8ccn	.
.	8b	.
.	8anJ)	.
=165	=165	=165
4d 4fn	(8g#L	.
.	8a	.
4d 4f	8b	.
.	8g#J	.
=166	=166	=166
4c# 4e	8aL	.
.	8cc#	.
4r	8ee	.
.	8cc#J)	.
*clefF4	*	*
=167	=167	=167
*^	*	*
(8AL	2A	4.cc# (4.aa	fp
8c#	.	.	.
8e	.	.	.
8c#J)	.	8ee 8gg#)	.
=168	=168	=168	=168
(8AL	2A	8ee (8gg#L	.
8d	.	8dd 8ff#J)	.
8f#	.	8dd 8ff#L	.
8eJ)	.	8cc# 8eeJ	.
=169	=169	=169	=169
(8AL	2A	8cc# (8eeL	.
8B	.	8b 8ddJ)	.
8d	.	8b 8ddL	.
8c#J)	.	8a 8cc#J	.
=170	=170	=170	=170
(8dL	2A	(8a 8cc#L	.
8e	.	8g#) 8bJ	.
8c#	.	4a	.
8AJ)	.	.	.
=171	=171	=171	=171
*	*	*^	*
(8dL	4A	(4.b	2g#	fp
8e	.	.	.	.
8d	4A	.	.	.
8eJ)	.	8cc#)	.	.
*	*	*v	*v	*
=172	=172	=172	=172
(8c#L	2A	(8bL	.
8e	.	8aJ)	.
8c#	.	4a	.
8eJ)	.	.	.
=173	=173	=173	=173
*	*	*^	*
(8dL	4A	(4.b	2g#	fp
8e	.	.	.	.
8d	4A	.	.	.
8eJ)	.	8cc#)	.	.
*	*	*v	*v	*
=174	=174	=174	=174
*v	*v	*	*
*>C1	*>C1	*>C1
*^	*	*
4c#	4A	4a	.
4AA	4ryy	4r	.
=175:|!	=175:|!	=175:|!	=175:|!
*v	*v	*	*
*>C2	*>C2	*>C2
*^	*	*
4c#	4A	8aL	.
.	.	8e	.
4r	4r	8a	.
.	.	8bJ	.
*v	*v	*	*
=176||	=176||	=176||
*k[]	*k[]	*k[]
*>D	*>D	*>D
*^	*^	*
8r	8r	(4.cc	4.a	p
(8AL	4.A	.	.	.
8e	.	.	.	.
8dJ)	.	8b)	8g#	.
=177	=177	=177	=177	=177
8r	8r	(4.a	2e	.
(8AL	4.A	.	.	.
8c	.	.	.	.
8BJ)	.	8g#)	.	.
*v	*v	*	*	*
=178	=178	=178	=178
8r	(4.a	2e	.
(8AL	.	.	.
8c	.	.	.
8G#J)	8b)	.	.
=179	=179	=179	=179
.	(8ddqq	.	.
8r	(4cc)	4a	.
(8AL	.	.	.
8e	4b)	4g#	.
8EJ)	.	.	.
=180	=180	=180	=180
8r	(4.dd	2a	.
(8FL	.	.	.
8f	.	.	.
8eJ)	8cc)	.	.
=181	=181	=181	=181
8r	(4.ff	2a	.
(8DL	.	.	.
8d	.	.	.
8cJ)	8ee)	.	.
=182	=182	=182	=182
8r	(4.dd	4.g#	.
(8BBL	.	.	.
8B	.	.	.
8AJ)	8cc)	8a	.
=183	=183	=183	=183
4E 4e	(8ccL	4g#	.
.	8bJ)	.	.
4E	(8g#L	4r	.
.	8eJ)	.	.
=184	=184	=184	=184
*^	*	*	*
8r	8r	(4.cc	4.a	.
(8AL	4.A	.	.	.
8e	.	.	.	.
8dJ)	.	8b)	8g#	.
=185	=185	=185	=185	=185
8r	8r	(4.a	2e	.
(8AL	4.A	.	.	.
8c	.	.	.	.
8BJ)	.	8g#)	.	.
*v	*v	*	*	*
=186	=186	=186	=186
8r	(4.a	2e	.
(8AL	.	.	.
8c	.	.	.
8G#J)	8b)	.	.
*	*v	*v	*
=187	=187	=187
.	(8ddqq	.
*	*^	*
8r	()4cc	4a	.
(8AL	.	.	.
8e	4b)	4g#	.
8EJ)	.	.	.
=188	=188	=188	=188
8r	(4.ff	2a	.
(8DL	.	.	.
8d	.	.	.
8cJ)	8ee)	.	.
=189	=189	=189	=189
8r	(4.dd	2a	.
(8FL	.	.	.
8f	.	.	.
8eJ)	8cc)	.	.
*	*v	*v	*
=190	=190	=190
4d	(8ccL	.
.	8b)	.
4e	8a	.
.	8g#J	.
=191	=191	=191
4f	8a	.
.	8cc#'L	.
4r	8dd'	.
.	8ee'J	.
=192	=192	=192
*	*^	*
8r	(4.ff	2a	f
(8DL	.	.	.
8d	.	.	.
8cnJ)	8ee)	.	.
=193	=193	=193	=193
8r	(4.gg#	4.dd	.
(8BBL	.	.	.
8B	.	.	.
8AJ)	8aa)	8ccn	.
*	*v	*v	*
=194	=194	=194
4d	8cc (8eeL	.
.	8b 8dd)	.
4e	8a 8cc	.
.	8g# 8bJ	.
=195	=195	=195
4A	8a'L	.
.	8cc'	.
4r	8ee'	.
.	8aa'J	.
*clefG2	*	*
=196	=196	=196
8r	(4.bb-	p
(8c#L	.	.
8gn	.	.
8b-J)	8ggn)	.
=197	=197	=197
8r	(8ggL	.
(8dL	8ff)	.
8f	8ee'	.
8aJ)	8dd'J	.
=198	=198	=198
8r	(4.ccc	.
(8d#L	.	.
8a	.	.
8ccnJ)	8aa)	.
=199	=199	=199
8r	(8aaL	.
(8eL	8gg#)	.
8g#	8ff#'	.
8bJ)	8ee'J	.
*clefF4	*	*
=200	=200	=200
*	*^	*
8r	2ddd	(4.aa	f
(8FL	.	.	.
8f	.	.	.
8eJ)	.	8gg#)	.
=201	=201	=201	=201
8r	2ddd	(4.aa	.
(8FL	.	.	.
8f	.	.	.
8eJ)	.	8gg#)	.
=202	=202	=202	=202
8r	2ddd	(4.aa	.
(8FL	.	.	.
8f	.	.	.
8eJ)	.	8gg#)	.
=203	=203	=203	=203
8r	2ddd	(4.aa	.
(8FL	.	.	.
8f	.	.	.
8eJ)	.	8gg#)	.
=204	=204	=204	=204
(4.CC 4.C	8r	8r	.
.	(8eL	4.e	p
.	8ee	.	.
8BBB) 8BB	8ddJ)	.	.
=205	=205	=205	=205
(4.AAA 4.AA	8r	8r	.
.	(8eL	4.e	.
.	8cc	.	.
8BBB 8BB)	8bJ)	.	.
=206	=206	=206	=206
(4.CC 4.C	8r	8r	.
.	(8eL	4.e	.
.	8a	.	.
8DD 8D)	8bJ)	.	.
=207	=207	=207	=207
(4CC 4C	8r	8r	.
.	(8eL	4.e	.
4BBB 4BB)	8a	.	.
.	8g#J)	.	.
*	*v	*v	*
=208	=208	=208
*^	*	*
8r	8r	(4.d 4.dd	.
4.E	(8EL	.	.
.	8B	.	.
.	8AJ)	8c) 8cc	.
=209	=209	=209	=209
8r	8r	(4.B 4.b	.
4.E	(8EL	.	.
.	8G#	.	.
.	8AJ)	8c) 8cc	.
=210	=210	=210	=210
8r	8r	(4.d 4.dd	.
4.E	(8EL	.	.
.	8B	.	.
.	8cJ)	8e) 8ee	.
=211	=211	=211	=211
8r	8r	(4d 4dd	.
4.E	(8EL	.	.
.	8B	4c) 4cc	.
.	8AJ)	.	.
*v	*v	*	*
=212	=212	=212
8CL	4.ee (4.aa	f
8c	.	.
8e	.	.
8BJ	8dd 8ggn)	.
=213	=213	=213
8AAL	4.cc (4.ff	.
8A	.	.
8c	.	.
8GJ	8b 8ee)	.
=214	=214	=214
8FFL>	4.a (4.dd	.
8F	.	.
8A	.	.
8EJ	8g 8cc)	.
=215	=215	=215
8DDL	(4.f 4.b	.
8D	.	.
8F	.	.
8CJ	8e) 8a	.
=216	=216	=216
4BB	(8g#L	.
.	8b	.
4GG#	8e	.
.	8ddJ	.
=217	=217	=217
4AA	8ccL	.
.	8a	.
4D	8ff	.
.	8ddJ)	.
=218	=218	=218
4E	4e 4a 4cc	.
4EE	4e 4g# 4b	.
=219	=219	=219
8AAAL	4a	.
8CC	.	.
8EE	4r	.
8AAJ	.	.
=220	=220	=220
(4.C/ 4.E/	8eL	.
.	8ee	.
.	8aa	.
8BB) 8D	8ggnJ	.
=221	=221	=221
(4.AA 4.C	8cL	.
.	8cc	.
.	8ff	.
8GG) 8BB	8eeJ	.
=222	=222	=222
(4.FF 4.AA	8AL	.
.	8a	.
.	8dd	.
8EE) 8GG	8ccJ	.
=223	=223	=223
(4.DD 4.FF	8FL	.
.	8f	.
.	8b	.
8CC) 8EE	8aJ	.
=224	=224	=224
4BBB 4DD	8g#L	.
.	8b	.
(4GG# [4E	8e	.
.	8ddJ	.
=225	=225	=225
4AA) 4E]	8ccL	.
.	8a	.
4D	8ff	.
.	8ddJ	.
=226	=226	=226
(8EL	4e 4a 4cc	.
8D#	.	.
8E	4e 4g# 4b	.
8EEJ)	.	.
=227	=227	=227
*	*^	*
8r	2cc#	8r	.
(8B-L	.	(>(<8gnL	.
8A	.	8a	.
8GnJ	.	8b-J)	.
=228	=228	=228	=228
8FL	8ddL	2a	.
8E	8ee	.	.
8D	8ff	.	.
8FJ)	8ddJ)	.	.
=229	=229	=229	=229
8r	2dd#	8r	.
(8cnL	.	(>(8aL	.
8Bn	.	8bn	.
8AJ	.	8ccnJ)	.
=230	=230	=230	=230
8G#L	8eeL	2b	.
8F#	8ff#	.	.
8E	8gg#	.	.
8G#J)	8eeJ)	.	.
=231	=231	=231	=231
8r	2gg#	8r	.
(8fnL	.	(8ddL	.
8e	.	8ee	.
8dJ	.	8ffnJ)	.
=232	=232	=232	=232
4c)	8aaL	8ee	.
.	8eeJ	8ryy	.
4d	4ryy	8ffL	.
.	.	8ddJ	.
*	*v	*v	*
=233	=233	=233
4e	8ccL	.
.	8a	.
4E	8ee	.
.	8g#J	.
=234	=234	=234
*	*^	*
2r	(4.ccc	8r	p
.	.	(8eeL	.
.	.	8aa	.
.	8bb)	8ggJ)	.
=235	=235	=235	=235
2r	(4.aa	8r	.
.	.	(8ccL	.
.	.	8ff	.
.	8ggn)	8eeJ)	.
=236	=236	=236	=236
2r	(4.ff	8r	.
.	.	(8aL	.
.	.	8dd	.
.	8ee)	8ccJ)	.
=237	=237	=237	=237
2r	(4.dd	8r	.
.	.	(8fL	.
.	.	8b	.
.	8cc)	8aJ)	.
*	*v	*v	*
=238	=238	=238
4r	4b	.
4D 4F 4B	4f 4b 4ff	f
=239	=239	=239
4E 4A 4c	4a 4cc 4ee	.
4EE 4E	4B 4e 4g#	.
=240	=240	=240
*	*^	*
2r	(4.ccc	8r	p
.	.	(8eeL	.
.	.	8aa	.
.	8bb)	8ggnJ)	.
=241	=241	=241	=241
2r	(4.aa	8r	.
.	.	(8ccL	.
.	.	8ff	.
.	8ggn)	8eeJ)	.
=242	=242	=242	=242
2r	(4.ff	8r	.
.	.	(8aL	.
.	.	8dd	.
.	8ee)	8ccJ)	.
=243	=243	=243	=243
2r	(4.dd	8r	.
.	.	(8fL	.
.	.	8b	.
.	8cc)	8aJ)	.
*	*v	*v	*
=244	=244	=244
4r	4b	.
4D 4F 4B	4b 4ff	f
=245	=245	=245
4E 4A 4c	4a 4cc 4ee	.
4EE 4E	4B 4e 4g#	.
=246	=246	=246
4AA	8aL	.
.	8e	.
4r	8cc	.
.	8aJ	.
=247	=247	=247
2r	8eeL	.
.	8cc	.
.	8b	.
.	8g#J	.
=248	=248	=248
8AAL	8aL	.
8EE	8e 8ee	.
8C	8e 8ee	.
8AAJ	8e 8eeJ	.
=249	=249	=249
8EL	8e 8eeL	.
8C	8e 8ee	.
8BB	8e 8ee	.
8GG#J	8e 8eeJ	.
=250	=250	=250
8AAL	4e 4ee	.
8EE 8E	.	.
8EE 8E	4cc 4ee 4aa	.
8EE 8EJ	.	.
=251	=251	=251
8EE 8EL	4ee 4aa 4ccc	.
8EE 8E	.	.
8EE 8E	4ee 4gg# 4bb	.
8EE 8EJ	.	.
=252	=252	=252
4AA 4A	4aa	.
4AAA 4AA	4c 4e 4a	.
=253	=253	=253
4AAA 4AA	4c 4e 4a	.
4r	4r	.
==	==	==
*-	*-	*-
!!!RDF**kern: > = above
!!!RDF**kern: < = below
!!!YOR: Alte Mozart-Ausgabe, Band 20, Breitkopf &amp; H&auml;rtel 1877-1883.
!!!YOY: 1878
!!!YEC: 2018 Craig Stuart Sapp
!!!YEM: Licence: (CC BY-NC-SA 4.0) https://creativecommons.org/licenses/by-nc-sa/4.0
!!!YER: 2018
!!!ENC: Craig Stuart Sapp
!!!END: 2009/09/28
!!!EED: Craig Stuart Sapp
!!!EEV: 2018/06/17
!!!EFL: 36/69
!!!AGN: piano sonata
!!!AFR: 
!!!title: @{OTL}, K 310 (300d), mvmt. @{OMV}
